src/standard/hardware/laptop-video-call.svg

<svg xmlns="http://www.w3.org/2000/svg" viewBox="0 0 36 36">
  <path d="M18 9.62a.62.62 0 1 0-.62-.62.61.61 0 0 0 .62.62Z"/>
  <path d="M6 24.62h24a.62.62 0 0 0 .62-.62V9a.62.62 0 0 0-.62-.62h-9a.62.62 0 1 0 0 1.24h8.38v13.76H6.62V9.62H15a.62.62 0 0 0 0-1.24H6a.62.62 0 0 0-.62.62v15a.62.62 0 0 0 .62.62Zm26 1.76H4a.62.62 0 1 0 0 1.24h28a.62.62 0 1 0 0-1.24Z"/>
  <path d="M11.88 14v5a.62.62 0 0 0 .62.62h7a.62.62 0 0 0 .62-.62v-1.39l3.07 1.73a.59.59 0 0 0 .31.09.62.62 0 0 0 .62-.63v-4.6a.62.62 0 0 0-.3-.54.64.64 0 0 0-.63 0l-3.07 1.73V14a.62.62 0 0 0-.62-.62h-7a.62.62 0 0 0-.62.62Zm11 1.27v2.46L20.7 16.5Zm-9.76-.65h5.76v3.76h-5.76Z"/>
</svg>

<svg id="bc235cd1-ee44-4185-bd6b-7a8d301f735c" data-name="Icon" xmlns="http://www.w3.org/2000/svg" viewBox="0 0 36 36">
  <path d="M18,9.62A.62.62,0,1,0,17.38,9,.61.61,0,0,0,18,9.62Z"/>
  <g>
    <path d="M6,24.62H30a.62.62,0,0,0,.62-.62V9A.62.62,0,0,0,30,8.38H21a.62.62,0,1,0,0,1.24h8.38V23.38H6.62V9.62H15a.62.62,0,0,0,0-1.24H6A.62.62,0,0,0,5.38,9V24A.62.62,0,0,0,6,24.62Z"/>
    <path d="M32,26.38H4a.62.62,0,1,0,0,1.24H32a.62.62,0,1,0,0-1.24Z"/>
    <path d="M11.88,14v5a.62.62,0,0,0,.62.62h7a.62.62,0,0,0,.62-.62V17.61l3.07,1.73a.59.59,0,0,0,.31.09.62.62,0,0,0,.62-.63V14.2a.62.62,0,0,0-.3-.54.64.64,0,0,0-.63,0l-3.07,1.73V14a.62.62,0,0,0-.62-.62h-7A.62.62,0,0,0,11.88,14Zm11,1.27v2.46L20.7,16.5Zm-9.76-.65h5.76v3.76H13.12Z"/>
  </g>
</svg>
